X: 23478
T: Lewis J. McLeod
R: strathspey
M: 4/4
K: Dminor
A^c|d2 A>G F<D D2|E>F E>A F<D DA|B>A G>B A>F D>F|E>F E>D C/E/A A^c|
d2 A>G F<D D2|E>F E>A F<D DA|B>A G>B A<d D2|E>F E>A F<D (3A=B^c|[K:=B^f^c||
|:d2 f>e d<A A>d|e2 g>f e<A A2|f2a>f B2g2|(3fed (3cde f<d (3A=B^c:|

